X:198
T: Expectation Waltz
O:klezmer
C: Russian
R: Waltz
L: 1/4
M: 3/4
K: Dm
|: z A, || "Dm"B,2 A, | D2 E | F3- | F D E | F D E | F D F | "A7"E3- | E z A, | B,2 A, | E2 F |
| G3- | G E F | G E F | G A B | "Dm"A3- | A Z A, | "Dm"B,2 A, | D2 E | F3- | F z D/E/ |
| F z E/F/ | "C7"G z F/G/ | "F"A3- | A B A | "A7"G3- | G A G | "Dm"F3- | F G F | "A7"E2 B | A2 ^C | "Dm"D3- | "fine"D :|
|: A F || "Dm"A3- | A A F | A3- | A B G | "Gm"B3- | B B G | B3- | B E F | "A7"G3- | G F G |
| "Dm"A3- | A G F | "A7"E> AB/A/ | ^C> AB/A/ | "Dm"D3- | D :| \
|: d c || "C7"c3- | c B G |"F"A> A A | z _e d |
|"D7"d3- | d c A | "Gm"B> B B | z G A "C7"B3- | B G d | "F"c3- | c A F | "C7"C> EG/B/ | d2 c | "F"F3- | F :|





